X: 8888
T: Curious Cat, The
R: jig
M: 6/8
K: Edorian
E2B BAB|dBA BEE|D2d dcd|AFD FGA|
E2B BAB|dBA BEE|D2d dcd|AFD E3:|
|:B2e ede|fed fed|e2d dBA|Bde dBA|
B2e efe|def afd|edB AFA|BEE E3||

